X:56
T:Moll in the Wad
C:"Irish"
S:Petrie's Third Collection of Strathspey Reels and Country Dances &c.
Z:Steve Wyrick <sjwyrick'at'gmail'dot'com>, 7/31/05
N:Petrie's Third Collection, page 22
L:1/8
M:6/8
R:Jig
K:Em
c|(TBAB) G2F|E2F G2A|(TBAB) G2B|AFD D2c|(TBAB) G2F|E2F G2A|BGB \{Bc\}d2 B|AFD D2:|c|
BGB d2c|BGB d2c|BGB dcB|ecA ABc|BGB d2c|BGB def|gfe dcB|AFD D2:|
